X: 1
T: The Rambler
R: jig
M: 6/8
L: 1/8
K: Amaj
|: EFE E2 A|FEC E2 e|fec ABc|dcd BAF|
|EFE E2 A|FEC E2 e|fec ABc|1 BcB A2 F :|2 BcB Acd||
|: ecB Ace|aff faf|ece fec|cBA Bcd|
|ecB Ace|aff faf|ece fec|1 BcB Aee:|2 BcB (3ABA F||


Tune 510	Setting 13437

